X:1
T:Tu sei vivo fuoco
T:Joachim Neander (1650-1680) arr. BMarble
T:Tu sei vivo fuoco
T:Copyright © 2017 by CPDL.  This edition can be fully distributed, duplicated, performed, and recorded 
T:Copyright © 2017 by CPDL.  This edition can be fully distributed, duplicated, performed, and recorded 
T:Copyright © 2017 by CPDL.  This edition can be fully distributed, duplicated, performed, and recorded 
C:Joachim Neander (1650-1680)
C:arr. BMarble
Z:Copyright © 2017 by CPDL.  This edition can be fully distributed, duplicated, performed, and recorded
%%score [ ( 1 2 ) ( 3 4 ) ]
L:1/8
Q:1/2=48
M:2/2
K:F
V:1 treble nm="P1"
V:2 treble 
V:3 bass nm="P2"
V:4 bass 
V:1
 A2 A2 A2 A2 | G4 G4 | F2 F2 F2 F2 | E4 E4 |[M:3/2] D2 D2 C2 F2 G2 A2 |[M:2/2] G4 F4 | %6
w: 1.~Tu sei vi- vo|fuo- co|che tri- on- fi\_a|se- ra;|del mio gior- no sei la|bra- ce.|
w: 2.~Tu sei fres- ca|nu- be|che ris- to- ri\_a|se- ra;|del mio gio- no sei ru-|gia- da.|
w: 3.~Tu sei l'o- riz-|zon- te|che s'al- lar- ga\_a|se- ra;|del mio gior- no sei di-|mo- ra.|
w: 4.~Tu sei vo- ce\_a-|mi- ca|che mi par- li\_a|se- ra;|del mio gior- no sei con-|for- to.|
w: 5.~Tu sei spo- so\_ar-|den- te|che ri- tor- ni\_a|se- ra;|del mio gior- no sei l'ab-|brac- cio.|
 A2 A2 A2 A2 | G4 G4 | F2 F2 F2 F2 | E4 E4 |[M:3/2] D2 D2 C2 F2 G2 A2 |[M:2/2] G4 F4 | A2 A2 B4 | %13
w: Ec- co gia' ros-|seg- gia|di bel- lez- za\_e-|ter- na,|ques- to gior- no che si|speg- ne.|Se con te,|
w: Ec- co gia' ri-|na- sce|di fres- chez- za\_e-|ter- na,|ques- to gior- no che sfio-|ri- sce.||
w: Ec- co gia' ri-|po- sa|di am- piez- za\_e-|ter- na,|ques- to gior- no che si|chiu- de.||
w: Ec- co gia' ri-|suo- na|d'al- le- grez- za\_e-|ter- na,|ques- to gior- no che'am- mu-|ti- sce.||
w: Ec- co gia' e-|sul- ta|di eb- brez- za\_a-|ter- na,|ques- to gior- no che sos-|pi- ra.||
 G2 G2 A4 | c2 c2 B2 A2 | G4 A4 | c2 c2 B2 A2 |"^rit." G4 F4 |] %18
w: co- me vuoi,|l'a- ni- ma ris-|cal- do,|so- no nel- la|pa- ce.|
w: |cer- co la sor-|gen- te,|||
w: |mi\_av- vi- ci- no\_a|ca- sa,|||
w: |cer- co la pa-|ro- la,|||
w: |mi con- su- mo\_a-|man- do,|||
V:2
 F2 F2 F2 F2 | F4 E4 | D2 D2 D2 D2 | D4 ^C4 |[M:3/2] D=CB,A, G,2 F,C B,2 A,2 | %5
[M:2/2] (D2 CB,) A,4 | F2 F2 F2 F2 | F4 E4 | D2 D2 D2 D2 | D4 ^C4 | %10
[M:3/2] D=CB,A, G,2 F,C B,2 A,2 |[M:2/2] (D2 CB,) A,4 | F2 _E2 (D2 F2) | E2 D2 (^C2 D2) | %14
 E2 F2 F2 F2 | (F2 E2) (E2 F2) | G2 F_E D2 CF | (F2 E2) C4 |] %18
V:3
 [F,C]2 [F,C]2 [F,C]2 [F,C]2 | [C,C]4 [C,C]4 | [D,A,]2 [D,A,]2 [D,A,]2 [D,A,]2 | %3
 [A,,A,]4 [A,,A,]4 |[M:3/2] F,2 F,2 E,D, C,2 D,E, F,2 |[M:2/2] (F,2 E,2) F,4 | %6
 [F,C]2 [F,C]2 [F,C]2 [F,C]2 | [C,C]4 [C,C]4 | [D,A,]2 [D,A,]2 [D,A,]2 [D,A,]2 | %9
 [A,,A,]4 [A,,A,]4 |[M:3/2] F,2 F,2 E,D, C,2 D,E, F,2 |[M:2/2] (F,2 E,2) F,4 | F,2 C2 (B,2 D2) | %13
 C2 B,2 A,4 | G,2 A,2 B,2 C2 | (D2 CB,) A,4 | G,2 A,G, F,G, A,2 | (D2 CB,) A,4 |] %18
V:4
 x8 | x8 | x8 | x8 |[M:3/2] B,,2 B,,2 B,,2 A,,2 G,,2 F,,2 |[M:2/2] (B,,2 C,2) F,4 | x8 | x8 | x8 | %9
 x8 |[M:3/2] B,,2 B,,2 B,,2 A,,2 G,,2 F,,2 |[M:2/2] (B,,2 C,2) F,4 | D,2 F,2 (G,2 D,2) | %13
 E,2 G,2 (G,2 F,2) | E,2 D,2 G,,2 A,,2 | (B,,2 C,2) (^C,2 D,2) | E,2 F,C, D,=E, F,2 | %17
 (B,,2 C,2) F,,4 |] %18

